third_party/noto/noto_2/emoji_u1f4bb.svg

<svg enable-background="new 0 0 128 128" version="1.1" viewBox="0 0 128 128" xmlns="http://www.w3.org/2000/svg"><path d="m106 24.79h-83.85c-1.92 0-3.48 1.56-3.48 3.48v57.59c0 1.92 1.56 3.48 3.48 3.48h83.85c1.92 0 3.48-1.56 3.48-3.48v-57.59c0-1.92-1.55-3.48-3.48-3.48z" fill="#B7D5E5"/><radialGradient id="a" cx="48.408" cy="13.024" r="75.465" gradientTransform="matrix(1 0 0 1.0843 0 -10.189)" gradientUnits="userSpaceOnUse"><stop stop-color="#2F7889" offset="0"/><stop stop-color="#424242" offset="1"/></radialGradient><polygon points="104.75 83.2 23.4 83.2 24.36 30.93 103.79 30.93" fill="url(#a)"/><path d="m121.09 123.82h-113.5c-0.43 0-0.83-0.03-1.2-0.09-2.88-0.44-4.21-4.18-2.5-6.74l0.39-0.59h119.59l0.4 0.6c1.86 2.78 0.12 6.76-3.04 6.81-0.04 0.01-0.09 0.01-0.14 0.01z" fill="#2F7889"/><path d="m106.84 90.41h-86.24c-1.27 0-2.54 0.77-3.25 1.99l-14 25.48c-0.59 0.88-0.01 2.12 0.99 2.12h119.46c1 0 1.58-1.24 0.99-2.12l-14.71-25.63c-0.7-1.08-1.97-1.84-3.24-1.84z" fill="#eee"/><polygon points="86.36 115.52 41.8 115.52 44.65 107.54 83.72 107.54" fill="#B7D5E5"/><g fill="#69A1BA" opacity=".57"><polygon points="72.69 94.84 72.42 92.64 68.98 92.64 69.11 94.84"/><polygon points="67.14 94.84 67 92.64 63.55 92.64 63.55 94.84"/><polygon points="93.61 94.84 92.8 92.64 89.54 92.64 90.22 94.84"/><polygon points="88.36 94.84 87.68 92.64 84.36 92.64 84.9 94.84"/><polygon points="83.18 94.84 82.64 92.64 79.27 92.64 79.68 94.84"/><polygon points="102.11 94.84 101.16 92.64 94.45 92.64 95.27 94.84"/><polygon points="77.61 94.84 77.2 92.64 73.79 92.64 74.07 94.84"/><polygon points="33.76 94.84 34.44 92.64 31.18 92.64 30.37 94.84"/><polygon points="50.51 94.84 50.78 92.64 47.37 92.64 46.97 94.84"/><polygon points="39.35 94.84 39.89 92.64 36.57 92.64 35.9 94.84"/><polygon points="28.17 94.84 28.98 92.64 25.8 92.64 24.85 94.84"/><polygon points="44.93 94.84 45.34 92.64 41.97 92.64 41.43 94.84"/><polygon points="56.08 94.84 56.22 92.64 52.78 92.64 52.51 94.84"/><polygon points="61.65 94.84 61.65 92.64 58.2 92.64 58.06 94.84"/><polygon points="83.78 103.73 44.36 103.73 43.61 105.93 84.69 105.93"/><polygon points="102.15 105.93 100.94 103.73 107.48 103.73 108.43 105.93"/><polygon points="86.75 105.93 85.92 103.73 92.21 103.73 93.17 105.93"/><polygon points="95.39 105.93 94.43 103.73 98.74 103.73 99.84 105.93"/><polygon points="25.67 105.93 26.88 103.73 20.34 103.73 19.39 105.93"/><polygon points="41.07 105.93 41.9 103.73 35.61 103.73 34.65 105.93"/><polygon points="32.42 105.93 33.39 103.73 29.08 103.73 27.97 105.93"/><polygon points="29.71 98.51 30.53 96.32 23.86 96.32 22.91 98.51"/><polygon points="97.95 98.51 97.14 96.32 103.8 96.32 104.75 98.51"/><polygon points="96.25 98.51 95.29 96.32 91.44 96.32 92.26 98.51"/><polygon points="86.23 98.51 85.58 96.32 89.43 96.32 90.21 98.51"/><polygon points="80.19 98.51 79.72 96.32 83.57 96.32 84.17 98.51"/><polygon points="74.15 98.51 73.87 96.32 77.71 96.32 78.14 98.51"/><polygon points="68.12 98.51 68.01 96.32 71.86 96.32 72.1 98.51"/><polygon points="62.08 98.51 62.15 96.32 66 96.32 66.06 98.51"/><polygon points="56.04 98.51 56.29 96.32 60.14 96.32 60.03 98.51"/><polygon points="50.01 98.51 50.43 96.32 54.28 96.32 53.99 98.51"/><polygon points="43.97 98.51 44.57 96.32 48.42 96.32 47.95 98.51"/><polygon points="37.93 98.51 38.71 96.32 42.56 96.32 41.92 98.51"/><polygon points="31.9 98.51 32.85 96.32 36.7 96.32 35.88 98.51"/><polygon points="29.7 102.22 30.51 100.02 21.76 100.02 20.81 102.22"/><polygon points="95.87 102.22 95.1 100.02 90.93 100.02 91.57 102.22"/><polygon points="84.93 102.22 84.45 100.02 88.61 100.02 89.23 102.22"/><polygon points="78.28 102.22 77.96 100.02 82.13 100.02 82.58 102.22"/><polygon points="71.64 102.22 71.47 100.02 75.64 100.02 75.94 102.22"/><polygon points="65 102.22 64.99 100.02 69.15 100.02 69.3 102.22"/><polygon points="58.36 102.22 58.5 100.02 62.67 100.02 62.66 102.22"/><polygon points="51.71 102.22 52.01 100.02 56.18 100.02 56.01 102.22"/><polygon points="45.07 102.22 45.53 100.02 49.69 100.02 49.37 102.22"/><polygon points="38.43 102.22 39.04 100.02 43.21 100.02 42.73 102.22"/><polygon points="31.78 102.22 32.55 100.02 36.72 100.02 36.09 102.22"/><polygon points="97.47 102.22 96.65 100.02 105.4 100.02 106.35 102.22"/></g><path d="m124.73 117.88-14.34-25.48c-0.71-1.07-1.98-1.84-3.25-1.84 0 0 1.22 1.1 1.59 1.63l12.59 23.59c0.56 1.02-0.18 2.26-1.34 2.26h-112.02c-1.15 0-1.89-1.23-1.35-2.24l11.95-23.18c0.35-0.6 1.88-1.99 1.88-1.99h-0.45c-1.27 0-2.54 0.77-3.25 1.99l-13.46 25.26c-0.59 0.88-0.01 2.12 0.99 2.12h119.46c1.01 0 1.59-1.24 1-2.12z" fill="#B7D5E5"/><line x1="25.97" x2="39.18" y1="28.02" y2="28.02" fill="none" stroke="#eee" stroke-linecap="round" stroke-miterlimit="10" stroke-width="2.9357"/><path d="m109.37 30.11c0-1.04-1.01-1.12-1.01 0.11s0 55.8 0 55.8c0 1.34-1.09 2.43-2.43 2.43h-83.85c-1.34 0-2.43-1.09-2.43-2.43v-55.8s-1.01-1.15-1.01-0.11l-0.95 55.91c0 2.42 1.24 4.39 4.39 4.39h83.85c2.73 0 4.39-1.97 4.39-4.39l-0.95-55.91z" fill="#75A7BC"/></svg>

<?xml version="1.0" encoding="utf-8"?>
<!-- Generator: Adobe Illustrator 25.2.3, SVG Export Plug-In . SVG Version: 6.00 Build 0)  -->
<svg version="1.1" id="Layer_4" xmlns="http://www.w3.org/2000/svg" xmlns:xlink="http://www.w3.org/1999/xlink" x="0px" y="0px"
	 viewBox="0 0 128 128" style="enable-background:new 0 0 128 128;" xml:space="preserve">
<g>
	<path style="fill:#B7D5E5;" d="M106,24.79H22.15c-1.92,0-3.48,1.56-3.48,3.48v57.59c0,1.92,1.56,3.48,3.48,3.48H106
		c1.92,0,3.48-1.56,3.48-3.48V28.27C109.48,26.35,107.93,24.79,106,24.79z"/>
	
		<radialGradient id="SVGID_1_" cx="48.4085" cy="13.0244" r="75.4649" gradientTransform="matrix(1 0 0 1.0843 0 -10.1893)" gradientUnits="userSpaceOnUse">
		<stop  offset="0" style="stop-color:#2F7889"/>
		<stop  offset="1" style="stop-color:#424242"/>
	</radialGradient>
	<polygon style="fill:url(#SVGID_1_);" points="104.75,83.2 23.4,83.2 24.36,30.93 103.79,30.93 	"/>
	<g>
		<g>
			<path style="fill:#2F7889;" d="M121.09,123.82H7.59c-0.43,0-0.83-0.03-1.2-0.09c-2.88-0.44-4.21-4.18-2.5-6.74l0.39-0.59h119.59
				l0.4,0.6c1.86,2.78,0.12,6.76-3.04,6.81C121.19,123.82,121.14,123.82,121.09,123.82z"/>
			<path style="fill:#EEEEEE;" d="M106.84,90.41H20.6c-1.27,0-2.54,0.77-3.25,1.99L3.35,117.88C2.76,118.76,3.34,120,4.34,120
				h119.46c1,0,1.58-1.24,0.99-2.12l-14.71-25.63C109.38,91.17,108.11,90.41,106.84,90.41z"/>
		</g>
		<polygon style="fill:#B7D5E5;" points="86.36,115.52 41.8,115.52 44.65,107.54 83.72,107.54 		"/>
		<g style="opacity:0.57;">
			<g>
				<polygon style="fill:#69A1BA;" points="72.69,94.84 72.42,92.64 68.98,92.64 69.11,94.84 				"/>
				<polygon style="fill:#69A1BA;" points="67.14,94.84 67,92.64 63.55,92.64 63.55,94.84 				"/>
				<polygon style="fill:#69A1BA;" points="93.61,94.84 92.8,92.64 89.54,92.64 90.22,94.84 				"/>
				<polygon style="fill:#69A1BA;" points="88.36,94.84 87.68,92.64 84.36,92.64 84.9,94.84 				"/>
				<polygon style="fill:#69A1BA;" points="83.18,94.84 82.64,92.64 79.27,92.64 79.68,94.84 				"/>
				<polygon style="fill:#69A1BA;" points="102.11,94.84 101.16,92.64 94.45,92.64 95.27,94.84 				"/>
				<polygon style="fill:#69A1BA;" points="77.61,94.84 77.2,92.64 73.79,92.64 74.07,94.84 				"/>
				<polygon style="fill:#69A1BA;" points="33.76,94.84 34.44,92.64 31.18,92.64 30.37,94.84 				"/>
				<polygon style="fill:#69A1BA;" points="50.51,94.84 50.78,92.64 47.37,92.64 46.97,94.84 				"/>
				<polygon style="fill:#69A1BA;" points="39.35,94.84 39.89,92.64 36.57,92.64 35.9,94.84 				"/>
				<polygon style="fill:#69A1BA;" points="28.17,94.84 28.98,92.64 25.8,92.64 24.85,94.84 				"/>
				<polygon style="fill:#69A1BA;" points="44.93,94.84 45.34,92.64 41.97,92.64 41.43,94.84 				"/>
				<polygon style="fill:#69A1BA;" points="56.08,94.84 56.22,92.64 52.78,92.64 52.51,94.84 				"/>
				<polygon style="fill:#69A1BA;" points="61.65,94.84 61.65,92.64 58.2,92.64 58.06,94.84 				"/>
			</g>
			<g>
				<polygon style="fill:#69A1BA;" points="83.78,103.73 44.36,103.73 43.61,105.93 84.69,105.93 				"/>
				<polygon style="fill:#69A1BA;" points="102.15,105.93 100.94,103.73 107.48,103.73 108.43,105.93 				"/>
				<polygon style="fill:#69A1BA;" points="86.75,105.93 85.92,103.73 92.21,103.73 93.17,105.93 				"/>
				<polygon style="fill:#69A1BA;" points="95.39,105.93 94.43,103.73 98.74,103.73 99.84,105.93 				"/>
				<polygon style="fill:#69A1BA;" points="25.67,105.93 26.88,103.73 20.34,103.73 19.39,105.93 				"/>
				<polygon style="fill:#69A1BA;" points="41.07,105.93 41.9,103.73 35.61,103.73 34.65,105.93 				"/>
				<polygon style="fill:#69A1BA;" points="32.42,105.93 33.39,103.73 29.08,103.73 27.97,105.93 				"/>
			</g>
			<g>
				<polygon style="fill:#69A1BA;" points="29.71,98.51 30.53,96.32 23.86,96.32 22.91,98.51 				"/>
				<polygon style="fill:#69A1BA;" points="97.95,98.51 97.14,96.32 103.8,96.32 104.75,98.51 				"/>
				<g>
					<polygon style="fill:#69A1BA;" points="96.25,98.51 95.29,96.32 91.44,96.32 92.26,98.51 					"/>
					<polygon style="fill:#69A1BA;" points="86.23,98.51 85.58,96.32 89.43,96.32 90.21,98.51 					"/>
					<polygon style="fill:#69A1BA;" points="80.19,98.51 79.72,96.32 83.57,96.32 84.17,98.51 					"/>
					<polygon style="fill:#69A1BA;" points="74.15,98.51 73.87,96.32 77.71,96.32 78.14,98.51 					"/>
					<polygon style="fill:#69A1BA;" points="68.12,98.51 68.01,96.32 71.86,96.32 72.1,98.51 					"/>
					<polygon style="fill:#69A1BA;" points="62.08,98.51 62.15,96.32 66,96.32 66.06,98.51 					"/>
					<polygon style="fill:#69A1BA;" points="56.04,98.51 56.29,96.32 60.14,96.32 60.03,98.51 					"/>
					<polygon style="fill:#69A1BA;" points="50.01,98.51 50.43,96.32 54.28,96.32 53.99,98.51 					"/>
					<polygon style="fill:#69A1BA;" points="43.97,98.51 44.57,96.32 48.42,96.32 47.95,98.51 					"/>
					<polygon style="fill:#69A1BA;" points="37.93,98.51 38.71,96.32 42.56,96.32 41.92,98.51 					"/>
					<polygon style="fill:#69A1BA;" points="31.9,98.51 32.85,96.32 36.7,96.32 35.88,98.51 					"/>
				</g>
			</g>
			<g>
				<polygon style="fill:#69A1BA;" points="29.7,102.22 30.51,100.02 21.76,100.02 20.81,102.22 				"/>
				<g>
					<polygon style="fill:#69A1BA;" points="95.87,102.22 95.1,100.02 90.93,100.02 91.57,102.22 					"/>
					<polygon style="fill:#69A1BA;" points="84.93,102.22 84.45,100.02 88.61,100.02 89.23,102.22 					"/>
					<polygon style="fill:#69A1BA;" points="78.28,102.22 77.96,100.02 82.13,100.02 82.58,102.22 					"/>
					<polygon style="fill:#69A1BA;" points="71.64,102.22 71.47,100.02 75.64,100.02 75.94,102.22 					"/>
					<polygon style="fill:#69A1BA;" points="65,102.22 64.99,100.02 69.15,100.02 69.3,102.22 					"/>
					<polygon style="fill:#69A1BA;" points="58.36,102.22 58.5,100.02 62.67,100.02 62.66,102.22 					"/>
					<polygon style="fill:#69A1BA;" points="51.71,102.22 52.01,100.02 56.18,100.02 56.01,102.22 					"/>
					<polygon style="fill:#69A1BA;" points="45.07,102.22 45.53,100.02 49.69,100.02 49.37,102.22 					"/>
					<polygon style="fill:#69A1BA;" points="38.43,102.22 39.04,100.02 43.21,100.02 42.73,102.22 					"/>
					<polygon style="fill:#69A1BA;" points="31.78,102.22 32.55,100.02 36.72,100.02 36.09,102.22 					"/>
				</g>
				<polygon style="fill:#69A1BA;" points="97.47,102.22 96.65,100.02 105.4,100.02 106.35,102.22 				"/>
			</g>
		</g>
	</g>
</g>
<path style="fill:#B7D5E5;" d="M124.73,117.88L110.39,92.4c-0.71-1.07-1.98-1.84-3.25-1.84c0,0,1.22,1.1,1.59,1.63l12.59,23.59
	c0.56,1.02-0.18,2.26-1.34,2.26H7.96c-1.15,0-1.89-1.23-1.35-2.24l11.95-23.18c0.35-0.6,1.88-1.99,1.88-1.99h-0.45
	c-1.27,0-2.54,0.77-3.25,1.99L3.28,117.88C2.69,118.76,3.27,120,4.27,120h119.46C124.74,120,125.32,118.76,124.73,117.88z"/>
<line style="fill:none;stroke:#EEEEEE;stroke-width:2.9357;stroke-linecap:round;stroke-miterlimit:10;" x1="25.97" y1="28.02" x2="39.18" y2="28.02"/>
<path style="fill:#75A7BC;" d="M109.37,30.11c0-1.04-1.01-1.12-1.01,0.11s0,55.8,0,55.8c0,1.34-1.09,2.43-2.43,2.43H22.08
	c-1.34,0-2.43-1.09-2.43-2.43c0,0,0-54.57,0-55.8s-1.01-1.15-1.01-0.11l-0.95,55.91c0,2.42,1.24,4.39,4.39,4.39h83.85
	c2.73,0,4.39-1.97,4.39-4.39L109.37,30.11z"/>
</svg>
